docs/.vuepress/public/logos/jwt.svg

<svg width="101" height="101" xmlns="http://www.w3.org/2000/svg"><g fill="none" fill-rule="evenodd"><path d="M57.8 27.2L57.7.3h-15l.1 26.9 7.5 10.3 7.5-10.3zM42.8 73.3v27h15v-27L50.3 63l-7.5 10.3z" fill="#FFF"/><path d="M57.8 73.3l15.8 21.8 12.1-8.8-15.8-21.8-12.1-3.9v12.7zM42.8 27.2L26.9 5.4l-12.1 8.8L30.6 36l12.2 3.9V27.2z" fill="#00F2E6"/><path d="M30.6 36L5 27.7.4 41.9 26 50.3l12.1-4L30.6 36zM62.4 54.2l7.5 10.3 25.6 8.3 4.6-14.2-25.6-8.3-12.1 3.9z" fill="#00B9F1"/><path d="M74.5 50.3l25.6-8.4-4.6-14.2L69.9 36l-7.5 10.3 12.1 4zM26 50.3L.4 58.6 5 72.8l25.6-8.3 7.5-10.3L26 50.3z" fill="#D63AFF"/><path d="M30.6 64.5L14.8 86.3l12.1 8.8 15.9-21.8V60.6l-12.2 3.9zM69.9 36l15.8-21.8-12.1-8.8-15.8 21.8v12.7L69.9 36z" fill="#FB015B"/></g></svg>

<?xml version="1.0" encoding="UTF-8" standalone="no"?>
<svg width="101px" height="101px" viewBox="0 0 101 101" version="1.1" xmlns="http://www.w3.org/2000/svg" xmlns:xlink="http://www.w3.org/1999/xlink" xmlns:sketch="http://www.bohemiancoding.com/sketch/ns">
    <!-- Generator: Sketch 3.3.2 (12043) - http://www.bohemiancoding.com/sketch -->
    <title>Group</title>
    <desc>Created with Sketch.</desc>
    <defs></defs>
    <g id="Page-1" stroke="none" stroke-width="1" fill="none" fill-rule="evenodd" sketch:type="MSPage">
        <g id="jwt_logo" sketch:type="MSLayerGroup" transform="translate(-150.000000, -538.000000)">
            <g id="Group" transform="translate(0.000000, 413.000000)" sketch:type="MSShapeGroup">
                <g transform="translate(150.000000, 125.000000)" id="Shape">
                    <g>
                        <path d="M57.8,27.2 L57.7,0.3 L42.7,0.3 L42.8,27.2 L50.3,37.5 L57.8,27.2 Z" fill="#FFFFFF"></path>
                        <path d="M42.8,73.3 L42.8,100.3 L57.8,100.3 L57.8,73.3 L50.3,63 L42.8,73.3 Z" fill="#FFFFFF"></path>
                        <path d="M57.8,73.3 L73.6,95.1 L85.7,86.3 L69.9,64.5 L57.8,60.6 L57.8,73.3 Z" fill="#00F2E6"></path>
                        <path d="M42.8,27.2 L26.9,5.4 L14.8,14.2 L30.6,36 L42.8,39.9 L42.8,27.2 Z" fill="#00F2E6"></path>
                        <path d="M30.6,36 L5,27.7 L0.4,41.9 L26,50.3 L38.1,46.3 L30.6,36 Z" fill="#00B9F1"></path>
                        <path d="M62.4,54.2 L69.9,64.5 L95.5,72.8 L100.1,58.6 L74.5,50.3 L62.4,54.2 Z" fill="#00B9F1"></path>
                        <path d="M74.5,50.3 L100.1,41.9 L95.5,27.7 L69.9,36 L62.4,46.3 L74.5,50.3 Z" fill="#D63AFF"></path>
                        <path d="M26,50.3 L0.4,58.6 L5,72.8 L30.6,64.5 L38.1,54.2 L26,50.3 Z" fill="#D63AFF"></path>
                        <path d="M30.6,64.5 L14.8,86.3 L26.9,95.1 L42.8,73.3 L42.8,60.6 L30.6,64.5 Z" fill="#FB015B"></path>
                        <path d="M69.9,36 L85.7,14.2 L73.6,5.4 L57.8,27.2 L57.8,39.9 L69.9,36 Z" fill="#FB015B"></path>
                    </g>
                </g>
            </g>
        </g>
    </g>
</svg>
